!!!COM: Robert Franz
!!!CNT: Deutscher
!!!TXO: Deutsche 
!!!OTL: Abends
!!!OPS: Op. 11
!!!ONM: No. 6
!!!ONB: Original key: d minor
!!!LYR: Anonymous
!!!ENC: Brian Bice
!!!YOR: Vocal Album, G. Schirmer, Inc., 1907
!!!ODT: 1865/
!!NB: Vocal melody and text only encoded.
**kern	**silbe
*clefG2 	*
*k[b-e-a-d-g-]	*
*M4/4	*
=2	=2
2r	.
4r	.
8r	.
{8f	{O
=3	=3
4.b-	la2ch-
8a-	-le,
8g-	Freund
8f	der
8e-	Lie-
8g-	-be,
=4	=4
4.f	end-
8e-	-lich
(8d-	wie-
8f)	|
8f	-der
8B-	zu
=5	=5
2d-	mir
(4.c	her-
8d-)	|
=6	=6
2e-}	-ab;}
4r	.
8r	.
{8a-	{du
=7	=7
4.dd-	siehst
8cc	so
8b-	tru2-
8a-	be
8gn	auf
8d-	mein
=8	=8
4.cc	Fen-
8b-	-ster
(8a-	nie-
8cc)	|
8cc	der,
8f	wie
=9	=9
2a-	auf
2gn	ein
=10	=10
2.f}	Grab.}
4r	.
=11	=11
2r	.
4r	.
8r	.
{8f	{O
=12	=12
4.b-	sieh'
8a-	wie
8g-	mir
8f	ein
8e-	sehn
8g-	end
=13	=13
4.f	heiss
8e-	Ver-
(8d-	-lan-
8f)	|
8f	-gen
8B-	im
=14	=14
(2d-	Her-
4.c)	|
8d-	-zen
=15	=15
2e-}	schleicht;}
4r	.
8r	.
{8a-	{es
=16	=16
4.dd-	malt
8cc	sich,
8b-	blass
8a-	wie
8gn	du,
8dd-	auf
=17	=17
4.cc	mei-
8b-	-nen
(8a-	Wan-
8cc)	|
8cc	-gen
8f	von
=18	=18
2a-	Thra2-
2gn	-nen
=19	=19
2.f}	feucht.}
4r	.
=20	=20
2r	.
4r	.
8r	.
{8f	{In
=21	=21
4.b-	Weh-
8a-	muth
8g-	stumm,
8f	ach!
8e-	falt'
8g-	ich
=22	=22
4.f	mei-
8e-	-ne
(8d-	Ha2n-
8f)	|
8f	-de
8B-	und
=23	=23
(2d-	blick'
4.c)	|
8d-	um-
=24	=24
2e-}	-her}
4r	.
8r	.
{8a-	{und
=25	=25
4.a-	fin-
8dd-	-de
4dd-	Nie-
8cc	-mand,
8r	.
=26	=26
4r	.
8b-	der
8a-	mien
4.b-	Herz
8f	ver-
=27	=27
4a-	-sta2n-
8g-}	-de,}
8r	.
4r	.
{(8f	{als
8e-)	|
=28	=28
(4f	Du
8b-)	|
8r	.
4r	.
4an	und
=29	=29
2.b-}	Er!}
4r	.
*-	*-
